X: 104
T: No_40_The_Man_Who_Has_No_Joy.krn
N: Derived from No_40_The_Man_Who_Has_No_Joy.krn
%%abc-version 2.0
%%abcx-abcm2ps-target-version 5.9.1 (29 Sep 2008)
%%abc-creator hum2abc beta
%%abcx-conversion-date 2019/03/15 08:37:56
%%humdrum-veritas 4190743647
%%humdrum-veritas-data 3369337602
%%linebreak <none>
%%barnumbers 0
L: 1/8
M: 2/4
K: Bb clef=bass
[K:clef=bass][M:2/4]B,3/B,/ B,3/A,/ | 
B,2B,3/A,/ ]|:  
B,B, B,3/A,/ | 
B,B, B,3/A,/ | 
B,4 | 
(3B,A,A,A,2 ||  
[M:3/4]G,3/D,/D,4 ||  
[M:2/4]G,3/G,/ B,3/B,/ | 
A,/G,/G, G,3/G,/ | 
G,3/A,/ A,/G,3/ | 
G,3/G,/ G, z :|]  



